Numix-Light/16/status/indicator-keyboard-Ak.svg

<?xml version="1.0" encoding="UTF-8" standalone="no"?>
<svg
   xmlns:dc="http://purl.org/dc/elements/1.1/"
   xmlns:cc="http://creativecommons.org/ns#"
   xmlns:rdf="http://www.w3.org/1999/02/22-rdf-syntax-ns#"
   xmlns:svg="http://www.w3.org/2000/svg"
   xmlns="http://www.w3.org/2000/svg"
   xmlns:sodipodi="http://sodipodi.sourceforge.net/DTD/sodipodi-0.dtd"
   xmlns:inkscape="http://www.inkscape.org/namespaces/inkscape"
   viewBox="0 0 16 16"
   id="svg2"
   version="1.1"
   inkscape:version="0.91 r13725"
   sodipodi:docname="indicator-keyboard-Ak.svg">
  <metadata
     id="metadata13">
    <rdf:RDF>
      <cc:Work
         rdf:about="">
        <dc:format>image/svg+xml</dc:format>
        <dc:type
           rdf:resource="http://purl.org/dc/dcmitype/StillImage" />
      </cc:Work>
    </rdf:RDF>
  </metadata>
  <defs
     id="defs11" />
  <sodipodi:namedview
     pagecolor="#ffffff"
     bordercolor="#666666"
     borderopacity="1"
     objecttolerance="10"
     gridtolerance="10"
     guidetolerance="10"
     inkscape:pageopacity="0"
     inkscape:pageshadow="2"
     inkscape:window-width="640"
     inkscape:window-height="480"
     id="namedview9"
     showgrid="false"
     inkscape:zoom="14.75"
     inkscape:cx="8"
     inkscape:cy="8"
     inkscape:window-x="65"
     inkscape:window-y="24"
     inkscape:window-maximized="0"
     inkscape:current-layer="svg2" />
  <path
     style="fill:#353535;fill-opacity:1"
     d="M 1.5996094 0 C 0.71320937 2.9605947e-16 0 0.71320937 0 1.5996094 L 0 14.400391 C 2.9605947e-16 15.286791 0.71320937 16 1.5996094 16 L 14.400391 16 C 15.286791 16 16 15.286791 16 14.400391 L 16 1.5996094 C 16 0.71320937 15.286791 0 14.400391 0 L 1.5996094 0 z M 10.050781 4.5078125 L 10.050781 8.9355469 C 10.200781 8.7915469 10.368687 8.6274063 10.554688 8.4414062 C 10.740687 8.2554063 10.927281 8.0650469 11.113281 7.8730469 C 11.305281 7.6810469 11.484344 7.4964062 11.652344 7.3164062 C 11.820344 7.1364062 11.963984 6.9778438 12.083984 6.8398438 L 12.787109 6.8398438 C 12.649109 6.9838437 12.492359 7.1442188 12.318359 7.3242188 C 12.144359 7.5042188 11.961531 7.6945781 11.769531 7.8925781 C 11.583531 8.0845781 11.396938 8.2729844 11.210938 8.4589844 L 10.707031 8.9628906 C 10.893031 9.0888906 11.090781 9.2512188 11.300781 9.4492188 C 11.516781 9.6472187 11.727641 9.863656 11.931641 10.097656 C 12.141641 10.325656 12.335625 10.562594 12.515625 10.808594 C 12.701625 11.048594 12.858375 11.276188 12.984375 11.492188 L 12.291016 11.492188 C 12.147016 11.252188 11.982875 11.017062 11.796875 10.789062 C 11.616875 10.555063 11.424703 10.336813 11.220703 10.132812 C 11.022703 9.9288122 10.821187 9.7422187 10.617188 9.5742188 C 10.419187 9.4062187 10.230781 9.2663438 10.050781 9.1523438 L 10.050781 11.492188 L 9.4648438 11.492188 L 9.4648438 4.6152344 L 10.050781 4.5078125 z M 5.5351562 5.2558594 L 6.0761719 5.2558594 C 6.2981719 5.7178594 6.5070781 6.178625 6.7050781 6.640625 C 6.9030781 7.102625 7.1008281 7.5858437 7.2988281 8.0898438 C 7.5028281 8.5878438 7.7099219 9.1195937 7.9199219 9.6835938 C 8.1299219 10.241594 8.3594687 10.844187 8.6054688 11.492188 L 7.9296875 11.492188 C 7.8156875 11.186187 7.7074688 10.891375 7.6054688 10.609375 C 7.5034687 10.327375 7.4045938 10.05125 7.3085938 9.78125 L 4.2753906 9.78125 C 4.1733906 10.05125 4.07075 10.327375 3.96875 10.609375 C 3.86675 10.891375 3.7622969 11.186188 3.6542969 11.492188 L 3.015625 11.492188 C 3.255625 10.844187 3.4814062 10.241594 3.6914062 9.6835938 C 3.9014063 9.1195937 4.1047344 8.5878438 4.3027344 8.0898438 C 4.5067344 7.5858438 4.70825 7.102625 4.90625 6.640625 C 5.10425 6.178625 5.3131563 5.7178594 5.5351562 5.2558594 z M 5.7871094 5.9570312 C 5.5591094 6.4730313 5.3370938 6.99725 5.1210938 7.53125 C 4.9110938 8.06525 4.6928437 8.6417656 4.4648438 9.2597656 L 7.1191406 9.2597656 C 6.8911406 8.6417656 6.669125 8.06525 6.453125 7.53125 C 6.237125 6.99725 6.0151094 6.4730312 5.7871094 5.9570312 z "
     id="path4" />
</svg>

<svg xmlns="http://www.w3.org/2000/svg" viewBox="0 0 16 16">
 <path d="m 1.6 0 c -0.886 0 -1.6 0.713 -1.6 1.6 l 0 12.801 c 0 0.886 0.713 1.6 1.6 1.6 l 12.801 0 c 0.886 0 1.6 -0.713 1.6 -1.6 l 0 -12.801 c 0 -0.886 -0.713 -1.6 -1.6 -1.6 l -12.801 0 z m 8.451 4.508 l 0 4.428 c 0.15 -0.144 0.318 -0.308 0.504 -0.494 c 0.186 -0.186 0.373 -0.376 0.559 -0.568 c 0.192 -0.192 0.371 -0.377 0.539 -0.557 c 0.168 -0.18 0.312 -0.339 0.432 -0.477 l 0.703 0 c -0.138 0.144 -0.295 0.304 -0.469 0.484 c -0.174 0.18 -0.357 0.37 -0.549 0.568 c -0.186 0.192 -0.373 0.38 -0.559 0.566 l -0.504 0.504 c 0.186 0.126 0.384 0.288 0.594 0.486 c 0.216 0.198 0.427 0.414 0.631 0.648 c 0.21 0.228 0.404 0.465 0.584 0.711 c 0.186 0.24 0.343 0.468 0.469 0.684 l -0.693 0 c -0.144 -0.24 -0.308 -0.475 -0.494 -0.703 c -0.18 -0.234 -0.372 -0.452 -0.576 -0.656 c -0.198 -0.204 -0.4 -0.391 -0.604 -0.559 c -0.198 -0.168 -0.386 -0.308 -0.566 -0.422 l 0 2.34 l -0.586 0 l 0 -6.877 l 0.586 -0.107 z m -4.516 0.748 l 0.541 0 c 0.222 0.462 0.431 0.923 0.629 1.385 c 0.198 0.462 0.396 0.945 0.594 1.449 c 0.204 0.498 0.411 1.03 0.621 1.594 c 0.21 0.558 0.44 1.161 0.686 1.809 l -0.676 0 c -0.114 -0.306 -0.222 -0.601 -0.324 -0.883 c -0.102 -0.282 -0.201 -0.558 -0.297 -0.828 l -3.033 0 c -0.102 0.27 -0.205 0.546 -0.307 0.828 c -0.102 0.282 -0.206 0.577 -0.314 0.883 l -0.639 0 c 0.24 -0.648 0.466 -1.251 0.676 -1.809 c 0.21 -0.564 0.413 -1.096 0.611 -1.594 c 0.204 -0.504 0.406 -0.987 0.604 -1.449 c 0.198 -0.462 0.407 -0.923 0.629 -1.385 z m 0.252 0.701 c -0.228 0.516 -0.45 1.04 -0.666 1.574 c -0.21 0.534 -0.428 1.111 -0.656 1.729 l 2.654 0 c -0.228 -0.618 -0.45 -1.195 -0.666 -1.729 c -0.216 -0.534 -0.438 -1.058 -0.666 -1.574 z" style="fill:#353535;fill-opacity:1"/>
</svg>
